X:1
T:Title
%%score { ( 1 3 ) | 2 }
L:1/8
Q:1/4=120
M:4/4
K:D
V:1 treble nm="Grand Piano"
V:3 treble 
V:2 bass 
V:1
 [DF]4 [D=F]2 [D^F]2 | [DG]6 [DF]2 | [DA]2 [DF]2 D2 [DG]2 | [DF]4 [CE]4 | [FA]4 [EB]2 [Ec]2 | %5
 [DA]6 [DF]2 | [DF]2 [DF]2 [B,E]2 [B,D]2 | [CE]8 | [CE]4 [DF]2 [EG]2 | [FA]6 [FA]2 | %10
 [GB]2 [GB]2 [Ac]2 [GB]2 | [GB]4 [FA]4 | [Fd]4 F2 [FB]2 | [FA]2 [=F^G]2 [F=G]4 | %14
 [DF]4 [DB]2 [DB]2 | [CE]8 | [Dd]4 [DF]2 .[DFB]2 | [DA]2- [DEA]2 [CEGA]4 | [DFA]8 | %19
[M:8/4] [DG]8 [DF]8 |] %20
V:2
 [D,A,]4 [D,^G,]2 [D,A,]2 | [D,B,]6 [D,A,]2 | [D,F,]2 [D,A,]2 [F,A,]2 [G,B,]2 | [A,,A,]4 [A,,A,]4 | %4
 [A,D]4 [G,C]2 [G,C]2 | [F,D]6 [D,A,]2 | [B,,B,]2 [B,,B,]2 [E,^G,]2 [E,G,]2 | [A,,A,]8 | %8
 [G,A,]4 [F,A,]2 [E,A,]2 | [D,A,]6 [D,D]2 | [G,D]2 [G,D]2 [G,D]2 [G,D]2 | D4 D4 | %12
 [D,A,D]4 [D,A,D]2 [F,A,D]2 | [A,D]2 [A,D]2 [A,C]4 | [A,D]4 [G,D]2 [G,D]2 | [G,A,]8 | %16
 [F,A,]4 [D,A,]2 [D,A,]2 | [A,,A,]4 [A,,A,]4 | [D,A,]8 |[M:8/4] [G,,B,]8 [D,A,]8 |] %20
V:3
 x8 | x8 | x8 | x8 | x8 | x8 | x8 | x8 | x8 | x8 | x8 | x8 | x8 | x8 | x8 | x8 | x8 | C2 z2 z4 | %18
 x8 |[M:8/4] x16 |] %20

